src/images/icon.svg

<?xml version="1.0" encoding="UTF-8" standalone="no"?>
<svg
   xmlns:dc="http://purl.org/dc/elements/1.1/"
   xmlns:cc="http://creativecommons.org/ns#"
   xmlns:rdf="http://www.w3.org/1999/02/22-rdf-syntax-ns#"
   xmlns:svg="http://www.w3.org/2000/svg"
   xmlns="http://www.w3.org/2000/svg"
   xmlns:sodipodi="http://sodipodi.sourceforge.net/DTD/sodipodi-0.dtd"
   xmlns:inkscape="http://www.inkscape.org/namespaces/inkscape"
   enable-background="new 0 0 711.071 705.07"
   height="48"
   id="Layer_1"
   version="1.1"
   viewBox="0 0 48.000001 48"
   width="48"
   xml:space="preserve"
   inkscape:version="0.91 r13725"
   sodipodi:docname="icon.svg"
   inkscape:export-filename="E:\git\RESTer\data\images\icon64.png"
   inkscape:export-xdpi="120"
   inkscape:export-ydpi="120"><metadata
     id="metadata13"><rdf:RDF><cc:Work
         rdf:about=""><dc:format>image/svg+xml</dc:format><dc:type
           rdf:resource="http://purl.org/dc/dcmitype/StillImage" /><dc:title></dc:title></cc:Work></rdf:RDF></metadata><defs
     id="defs11" /><sodipodi:namedview
     pagecolor="#ffffff"
     bordercolor="#666666"
     borderopacity="1"
     objecttolerance="10"
     gridtolerance="10"
     guidetolerance="10"
     inkscape:pageopacity="0"
     inkscape:pageshadow="2"
     inkscape:window-width="1920"
     inkscape:window-height="1017"
     id="namedview9"
     showgrid="false"
     inkscape:zoom="7.5738158"
     inkscape:cx="34.429007"
     inkscape:cy="21.014567"
     inkscape:window-x="-8"
     inkscape:window-y="-8"
     inkscape:window-maximized="1"
     inkscape:current-layer="Layer_1" /><g
     id="g4232"
     style="fill:#4c4c4c;fill-opacity:1"
     transform="matrix(0.13422781,0,0,0.13422781,-23.392015,-23.283021)"><path
       style="fill:#4c4c4c;fill-opacity:1"
       d="M 24.037109 0.07421875 C 10.724261 0.07421875 2.3684758e-015 10.724002 0 23.962891 C 5.316922e-015 33.980007 6.0044378 42.464714 14.605469 46.101562 A 3.9811694 3.9811694 0 0 1 12.798828 41.916016 L 13.140625 40.251953 C 12.083553 39.560513 11.090268 38.749875 10.207031 37.792969 C 8.0622053 35.796196 6.6564021 33.355643 5.546875 30.619141 C 6.6597991 31.221929 8.145812 31.759553 9.8105469 32.246094 L 6.1171875 28.917969 A 3.8384604 3.8384604 0 0 1 4.9960938 27.111328 C 4.8383624 26.970174 4.7006552 26.831604 4.5859375 26.699219 C 4.4380185 25.885664 4.4375 24.924364 4.4375 23.962891 C 4.4375 22.039943 4.7342365 20.042607 5.2519531 18.267578 C 6.3160337 18.72356 7.6258944 19.113094 9.4160156 19.525391 L 11.457031 17.261719 C 8.2422393 16.426335 6.9490954 16.202029 6.3613281 15.679688 C 7.2489766 13.756739 8.5058282 11.8344 10.207031 10.28125 C 10.407044 10.066408 10.609914 9.8696271 10.814453 9.6757812 A 3.8384604 3.8384604 0 0 1 13.400391 6.71875 L 21.599609 4.0585938 L 29.796875 1.4023438 A 3.8384604 3.8384604 0 0 1 30.90625 1.2148438 A 3.8384604 3.8384604 0 0 1 31.580078 1.265625 C 29.214305 0.49615568 26.682248 0.074245273 24.037109 0.07421875 z M 32.919922 1.7460938 A 3.8384604 3.8384604 0 0 1 34.734375 5.8535156 L 34.392578 7.4570312 C 37.511246 9.3986702 40.091417 12.327498 41.638672 15.753906 C 41.306695 16.002945 40.58489 16.325212 39.365234 16.6875 L 41.484375 18.572266 A 3.9811694 3.9811694 0 0 1 41.658203 18.736328 C 42.029695 18.599122 42.390312 18.461994 42.675781 18.341797 C 43.267592 20.116825 43.5625 22.113903 43.5625 23.962891 C 43.5625 26.968894 43.216876 28.712517 36.691406 29.957031 L 34.09375 32.880859 L 34.929688 33.623047 C 34.969849 33.455547 35.017556 33.305312 35.056641 33.134766 C 37.793009 32.543089 40.307521 31.80353 42.230469 30.916016 C 41.268861 33.504599 39.863701 35.870021 37.792969 37.792969 C 37.456374 38.157613 37.096793 38.49469 36.726562 38.818359 A 3.9811694 3.9811694 0 0 1 34.3125 41.0625 L 26.132812 43.78125 A 3.9811694 3.9811694 0 0 0 26.130859 43.78125 L 17.951172 46.496094 A 3.9811694 3.9811694 0 0 1 16.011719 46.638672 C 18.520416 47.517891 21.219336 48 24.037109 48 C 37.423783 48 48 37.349564 48 23.962891 C 48 13.840964 41.813944 5.2387318 32.919922 1.7460938 z M 33.693359 10.736328 L 32.9375 14.28125 L 32.779297 15.025391 A 3.9811694 3.9811694 0 0 1 34.769531 14.279297 C 34.466402 13.030109 34.110779 11.842392 33.693359 10.736328 z M 13.1875 14.279297 C 13.067186 14.749732 12.95503 15.228522 12.849609 15.71875 L 13.716797 14.755859 L 13.1875 14.279297 z M 14.753906 32.414062 A 3.8384604 3.8384604 0 0 1 12.974609 33.191406 C 13.230812 34.401113 13.535084 35.545938 13.886719 36.628906 L 14.535156 33.474609 L 14.753906 32.414062 z "
       transform="matrix(7.450021,0,0,7.450021,174.271,173.45899)"
       id="path4234" /></g><path
     inkscape:connector-curvature="0"
     id="path4245"
     d="m 14.583733,10.36837 4.553908,4.10541 -10.4500631,11.591686 3.6963711,3.33233 10.450064,-11.591687 4.553029,4.104618 1.797271,-8.429707 1.796477,-8.4288264 -8.198132,2.65765 -8.198925,2.6585264 z"
     style="fill:#4c4c4c;fill-opacity:1;stroke:none;stroke-width:1.01499999;stroke-miterlimit:4;stroke-dasharray:none;stroke-opacity:1" /><path
     style="fill:#4c4c4c;fill-opacity:1;stroke:none;stroke-width:1.01499999;stroke-miterlimit:4;stroke-dasharray:none;stroke-opacity:1"
     d="m 33.056161,37.285743 -4.583217,-4.072663 10.366708,-11.666292 -3.720161,-3.305749 -10.36671,11.666292 -4.582332,-4.071878 -1.736804,8.442373 -1.736015,8.441487 8.178872,-2.716342 8.179659,-2.717228 z"
     id="path4249"
     inkscape:connector-curvature="0" /></svg>

<?xml version="1.0" encoding="UTF-8" standalone="no"?>
<svg xmlns:rdf="http://www.w3.org/1999/02/22-rdf-syntax-ns#" xmlns="http://www.w3.org/2000/svg" version="1.1" xml:space="preserve" height="48" viewBox="0 0 48.000001 48" width="48" enable-background="new 0 0 711.071 705.07" xmlns:cc="http://creativecommons.org/ns#" xmlns:dc="http://purl.org/dc/elements/1.1/"><g fill="#4c4c4c"><g transform="matrix(.13423 0 0 .13423 -23.392 -23.283)"><path d="m24.037 0.074219c-13.313 0-24.037 10.65-24.037 23.889 5.3169e-15 10.017 6.0044 18.502 14.605 22.139a3.9812 3.9812 0 0 1 -1.806 -4.186l0.342-1.664c-1.057-0.691-2.051-1.502-2.934-2.459-2.1448-1.997-3.5506-4.437-4.6601-7.174 1.1129 0.603 2.5989 1.141 4.2636 1.627l-3.6933-3.328a3.8385 3.8385 0 0 1 -1.1211 -1.807c-0.1577-0.141-0.2954-0.279-0.4102-0.412-0.1479-0.813-0.1484-1.775-0.1484-2.736 0-1.923 0.2967-3.92 0.8145-5.695 1.064 0.456 2.3739 0.845 4.164 1.257l2.041-2.263c-3.2148-0.836-4.5079-1.06-5.0957-1.582 0.8877-1.923 2.1445-3.846 3.8457-5.399 0.2-0.215 0.403-0.4114 0.607-0.6052a3.8385 3.8385 0 0 1 2.586 -2.957l8.2-2.6602 8.197-2.6563a3.8385 3.8385 0 0 1 1.109 -0.1875 3.8385 3.8385 0 0 1 0.674 0.0508c-2.366-0.76944-4.898-1.1914-7.543-1.1914zm8.883 1.6719a3.8385 3.8385 0 0 1 1.814 4.1074l-0.341 1.6035c3.118 1.9417 5.698 4.87 7.246 8.297-0.332 0.249-1.054 0.571-2.274 0.934l2.119 1.884a3.9812 3.9812 0 0 1 0.174 0.164c0.372-0.137 0.732-0.274 1.018-0.394 0.592 1.775 0.886 3.772 0.886 5.621 0 3.006-0.345 4.75-6.871 5.994l-2.597 2.924 0.836 0.742c0.04-0.167 0.088-0.318 0.127-0.488 2.736-0.592 5.251-1.331 7.173-2.219-0.961 2.589-2.366 4.954-4.437 6.877-0.337 0.365-0.696 0.702-1.066 1.025a3.9812 3.9812 0 0 1 -2.415 2.244l-8.179 2.719a3.9812 3.9812 0 0 0 -0.002 0l-8.18 2.715a3.9812 3.9812 0 0 1 -1.939 0.143c2.508 0.879 5.207 1.361 8.025 1.361 13.387 0 23.963-10.65 23.963-24.037 0-10.122-6.186-18.724-15.08-22.217zm0.773 8.9899l-0.755 3.545-0.159 0.744a3.9812 3.9812 0 0 1 1.991 -0.746c-0.304-1.249-0.659-2.437-1.077-3.543zm-20.505 3.543c-0.121 0.471-0.233 0.95-0.338 1.44l0.867-0.963-0.529-0.477zm1.566 18.135a3.8385 3.8385 0 0 1 -1.779 0.777c0.256 1.21 0.56 2.355 0.912 3.438l0.648-3.154 0.219-1.061z" transform="matrix(7.45 0 0 7.45 174.27 173.46)" fill="#4c4c4c"/></g><path d="m14.584 10.368 4.5539 4.1054-10.45 11.592 3.6964 3.3323 10.45-11.592 4.553 4.1046 1.7973-8.4297 1.7965-8.4288-8.1981 2.6576-8.1989 2.6585z"/><path d="m33.056 37.286-4.5832-4.0727 10.367-11.666-3.7202-3.3057-10.367 11.666-4.5823-4.0719-1.7368 8.4424-1.736 8.4415 8.1789-2.7163 8.1797-2.7172z"/></g></svg>
